src/actions/16/object-ungroup.svg

<svg xmlns="http://www.w3.org/2000/svg" viewBox="0 0 16 16">
    <path d="M2 2v3h1V3h2V2H2zm9 0v1h2v2h1V2h-3zM6 4a2 2 0 1 0-.001 3.999A2 2 0 0 0 6 4zm3 0v4h3V4H9zM5 9v3h2V9H5zm5.5 0L9 12h3l-1.5-3zM2 11v3h3v-1H3v-2H2zm11 0v2h-2v1h3v-3h-1z" style="fill:currentColor;fill-opacity:1;stroke:none;color:#050505;opacity:.7"/>
</svg>

<svg xmlns="http://www.w3.org/2000/svg" viewBox="0 0 16 16">
  <defs id="defs3051">
    <style type="text/css" id="current-color-scheme">
      .ColorScheme-Text {
        color:#363636;
      }
      </style>
  </defs>
 <path 
     style="fill:currentColor;fill-opacity:1;stroke:none" 
     d="M 2 2 L 2 5 L 3 5 L 3 3 L 5 3 L 5 2 L 3 2 L 2 2 z M 11 2 L 11 3 L 13 3 L 13 5 L 14 5 L 14 2 L 11 2 z M 6 4 C 4.895 4 4 4.895 4 6 C 4 7.105 4.895 8 6 8 C 7.105 8 8 7.105 8 6 C 8 4.895 7.105 4 6 4 z M 9 4 L 9 8 L 12 8 L 12 4 L 9 4 z M 5 9 L 5 12 L 7 12 L 7 9 L 5 9 z M 10.5 9 L 9 12 L 12 12 L 10.5 9 z M 2 11 L 2 14 L 5 14 L 5 13 L 3 13 L 3 11 L 2 11 z M 13 11 L 13 13 L 11 13 L 11 14 L 14 14 L 14 11 L 13 11 z "
     class="ColorScheme-Text"/>
</svg>
